X:295
T: Das Mdchen und der Lorbeerbaum (50), S. 158
N: T0184
O: Luxemburg
S: Singendes Volk, Esch-Alzette 1937 posth.]
N: Grevenmacher, fff Wilhelm Weins aus Esch-Alz., 1915
R: Liebeslieder]
M: 3/4
L: 1/16
K: G
D2 | G2B2B4A2G2 | F2A2D4z2
D2 | G2Bdd4B2B2 | B2A2z6
AB | c2e2e6dc | Bcded4z2
B2 | A2d2d6c2 | c2B2z6

@@@ Tune index: 8349
